dist/img/favourite768.svg

<svg width="62" height="44" viewBox="0 0 62 44" fill="none" xmlns="http://www.w3.org/2000/svg">
<path d="M31 26.6875L29.1875 25.0375C22.75 19.2 18.5 15.35 18.5 10.625C18.5 6.775 21.525 3.75 25.375 3.75C27.55 3.75 29.6375 4.7625 31 6.3625C32.3625 4.7625 34.45 3.75 36.625 3.75C40.475 3.75 43.5 6.775 43.5 10.625C43.5 15.35 39.25 19.2 32.8125 25.05L31 26.6875Z" fill="#2D2D2D"/>
<path d="M8.28 32.324V41H6.66V35.564C6.66 35.36 6.664 35.146 6.672 34.922C6.684 34.698 6.708 34.46 6.744 34.208C6.664 34.432 6.576 34.64 6.48 34.832C6.388 35.02 6.298 35.186 6.21 35.33L2.892 40.502C2.856 40.562 2.812 40.622 2.76 40.682C2.712 40.742 2.658 40.796 2.598 40.844C2.538 40.888 2.472 40.926 2.4 40.958C2.328 40.986 2.254 41 2.178 41H0.966V32.324H2.586V37.76C2.586 37.964 2.58 38.18 2.568 38.408C2.56 38.632 2.538 38.87 2.502 39.122C2.582 38.898 2.668 38.69 2.76 38.498C2.856 38.306 2.95 38.138 3.042 37.994L6.354 32.822C6.39 32.762 6.432 32.702 6.48 32.642C6.532 32.582 6.588 32.53 6.648 32.486C6.708 32.438 6.772 32.4 6.84 32.372C6.912 32.34 6.988 32.324 7.068 32.324H8.28ZM9.47747 35.51C9.70947 35.286 9.99747 35.104 10.3415 34.964C10.6855 34.82 11.0975 34.748 11.5775 34.748C11.9575 34.748 12.2955 34.794 12.5915 34.886C12.8875 34.974 13.1355 35.096 13.3355 35.252C13.5395 35.404 13.6935 35.58 13.7975 35.78C13.9055 35.976 13.9595 36.182 13.9595 36.398C13.9595 36.514 13.9415 36.636 13.9055 36.764C13.8735 36.888 13.8175 37.01 13.7375 37.13C13.6615 37.25 13.5595 37.362 13.4315 37.466C13.3035 37.566 13.1455 37.652 12.9575 37.724C13.2935 37.852 13.5635 38.04 13.7675 38.288C13.9755 38.536 14.0795 38.842 14.0795 39.206C14.0795 39.506 14.0095 39.772 13.8695 40.004C13.7335 40.236 13.5515 40.434 13.3235 40.598C13.0955 40.758 12.8335 40.88 12.5375 40.964C12.2455 41.048 11.9435 41.09 11.6315 41.09C11.4555 41.09 11.2655 41.074 11.0615 41.042C10.8615 41.01 10.6595 40.956 10.4555 40.88C10.2515 40.8 10.0515 40.696 9.85547 40.568C9.65947 40.436 9.48147 40.274 9.32147 40.082L9.74747 39.542C9.80747 39.45 9.89747 39.404 10.0175 39.404C10.1095 39.404 10.1975 39.434 10.2815 39.494C10.3655 39.55 10.4615 39.614 10.5695 39.686C10.6815 39.754 10.8135 39.818 10.9655 39.878C11.1175 39.934 11.3075 39.962 11.5355 39.962C11.9075 39.962 12.1895 39.878 12.3815 39.71C12.5735 39.542 12.6695 39.332 12.6695 39.08C12.6695 38.832 12.5695 38.638 12.3695 38.498C12.1735 38.358 11.8535 38.288 11.4095 38.288H10.7135V37.322H11.4095C11.7975 37.322 12.0955 37.254 12.3035 37.118C12.5115 36.982 12.6155 36.802 12.6155 36.578C12.6155 36.374 12.5235 36.206 12.3395 36.074C12.1595 35.942 11.8915 35.876 11.5355 35.876C11.3235 35.876 11.1435 35.898 10.9955 35.942C10.8475 35.986 10.7195 36.034 10.6115 36.086C10.5075 36.134 10.4195 36.18 10.3475 36.224C10.2755 36.268 10.2075 36.29 10.1435 36.29C10.0755 36.29 10.0175 36.278 9.96947 36.254C9.92147 36.226 9.86947 36.168 9.81347 36.08L9.47747 35.51ZM18.1318 40.01C18.6438 40.01 19.0258 39.846 19.2778 39.518C19.5298 39.19 19.6558 38.71 19.6558 38.078C19.6558 37.45 19.5318 36.972 19.2838 36.644C19.0398 36.316 18.6658 36.152 18.1618 36.152C17.6578 36.152 17.2738 36.308 17.0098 36.62C16.7458 36.928 16.6138 37.39 16.6138 38.006C16.6138 38.658 16.7378 39.156 16.9858 39.5C17.2378 39.84 17.6198 40.01 18.1318 40.01ZM18.5638 33.728C18.1878 33.752 17.8658 33.826 17.5978 33.95C17.3338 34.07 17.1138 34.234 16.9378 34.442C16.7658 34.646 16.6338 34.892 16.5418 35.18C16.4538 35.464 16.4018 35.78 16.3858 36.128C16.4858 35.972 16.6078 35.83 16.7518 35.702C16.8998 35.57 17.0638 35.458 17.2438 35.366C17.4278 35.27 17.6258 35.196 17.8378 35.144C18.0538 35.092 18.2838 35.066 18.5278 35.066C18.9358 35.066 19.3038 35.138 19.6318 35.282C19.9598 35.426 20.2378 35.63 20.4658 35.894C20.6978 36.158 20.8738 36.476 20.9938 36.848C21.1178 37.216 21.1798 37.624 21.1798 38.072C21.1798 38.536 21.1058 38.954 20.9578 39.326C20.8138 39.698 20.6078 40.016 20.3398 40.28C20.0758 40.54 19.7558 40.74 19.3798 40.88C19.0038 41.02 18.5878 41.09 18.1318 41.09C17.6878 41.09 17.2778 41.018 16.9018 40.874C16.5298 40.73 16.2078 40.496 15.9358 40.172C15.6638 39.848 15.4518 39.428 15.2998 38.912C15.1478 38.392 15.0718 37.758 15.0718 37.01C15.0718 36.382 15.1298 35.798 15.2458 35.258C15.3618 34.718 15.5518 34.246 15.8158 33.842C16.0798 33.434 16.4258 33.106 16.8538 32.858C17.2818 32.61 17.8098 32.462 18.4378 32.414L20.6278 32.246L20.7058 33.014C20.7218 33.178 20.6978 33.318 20.6338 33.434C20.5698 33.546 20.4558 33.606 20.2918 33.614L18.5638 33.728ZM23.8117 39.404C23.9797 39.608 24.1617 39.752 24.3577 39.836C24.5577 39.92 24.7737 39.962 25.0057 39.962C25.2297 39.962 25.4317 39.92 25.6117 39.836C25.7917 39.752 25.9437 39.624 26.0677 39.452C26.1957 39.28 26.2937 39.064 26.3617 38.804C26.4297 38.54 26.4637 38.23 26.4637 37.874C26.4637 37.514 26.4337 37.21 26.3737 36.962C26.3177 36.71 26.2357 36.506 26.1277 36.35C26.0197 36.194 25.8877 36.08 25.7317 36.008C25.5797 35.936 25.4057 35.9 25.2097 35.9C24.9017 35.9 24.6397 35.966 24.4237 36.098C24.2077 36.226 24.0037 36.408 23.8117 36.644V39.404ZM23.7337 35.684C23.9857 35.4 24.2717 35.17 24.5917 34.994C24.9117 34.818 25.2877 34.73 25.7197 34.73C26.0557 34.73 26.3617 34.8 26.6377 34.94C26.9177 35.08 27.1577 35.284 27.3577 35.552C27.5617 35.816 27.7177 36.144 27.8257 36.536C27.9377 36.924 27.9937 37.37 27.9937 37.874C27.9937 38.334 27.9317 38.76 27.8077 39.152C27.6837 39.544 27.5057 39.884 27.2737 40.172C27.0457 40.46 26.7677 40.686 26.4397 40.85C26.1157 41.01 25.7517 41.09 25.3477 41.09C25.0037 41.09 24.7097 41.038 24.4657 40.934C24.2217 40.826 24.0037 40.678 23.8117 40.49V43.01H22.3297V34.844H23.2357C23.4277 34.844 23.5537 34.934 23.6137 35.114L23.7337 35.684ZM32.3903 38.372C31.9623 38.392 31.6023 38.43 31.3103 38.486C31.0183 38.538 30.7843 38.606 30.6083 38.69C30.4323 38.774 30.3063 38.872 30.2303 38.984C30.1543 39.096 30.1163 39.218 30.1163 39.35C30.1163 39.61 30.1923 39.796 30.3443 39.908C30.5003 40.02 30.7023 40.076 30.9503 40.076C31.2543 40.076 31.5163 40.022 31.7363 39.914C31.9603 39.802 32.1783 39.634 32.3903 39.41V38.372ZM28.9943 35.702C29.7023 35.054 30.5543 34.73 31.5503 34.73C31.9103 34.73 32.2323 34.79 32.5163 34.91C32.8003 35.026 33.0403 35.19 33.2363 35.402C33.4323 35.61 33.5803 35.86 33.6803 36.152C33.7843 36.444 33.8363 36.764 33.8363 37.112V41H33.1643C33.0243 41 32.9163 40.98 32.8403 40.94C32.7643 40.896 32.7043 40.81 32.6603 40.682L32.5283 40.238C32.3723 40.378 32.2203 40.502 32.0723 40.61C31.9243 40.714 31.7703 40.802 31.6103 40.874C31.4503 40.946 31.2783 41 31.0943 41.036C30.9143 41.076 30.7143 41.096 30.4943 41.096C30.2343 41.096 29.9943 41.062 29.7743 40.994C29.5543 40.922 29.3643 40.816 29.2043 40.676C29.0443 40.536 28.9203 40.362 28.8323 40.154C28.7443 39.946 28.7003 39.704 28.7003 39.428C28.7003 39.272 28.7263 39.118 28.7783 38.966C28.8303 38.81 28.9143 38.662 29.0303 38.522C29.1503 38.382 29.3043 38.25 29.4923 38.126C29.6803 38.002 29.9103 37.894 30.1823 37.802C30.4583 37.71 30.7783 37.636 31.1423 37.58C31.5063 37.52 31.9223 37.484 32.3903 37.472V37.112C32.3903 36.7 32.3023 36.396 32.1263 36.2C31.9503 36 31.6963 35.9 31.3643 35.9C31.1243 35.9 30.9243 35.928 30.7643 35.984C30.6083 36.04 30.4703 36.104 30.3503 36.176C30.2303 36.244 30.1203 36.306 30.0203 36.362C29.9243 36.418 29.8163 36.446 29.6963 36.446C29.5923 36.446 29.5043 36.42 29.4323 36.368C29.3603 36.312 29.3023 36.248 29.2583 36.176L28.9943 35.702ZM40.596 34.844V41H39.114V38.276H36.714V41H35.232V34.844H36.714V37.178H39.114V34.844H40.596ZM47.428 34.844V41H45.946V38.276H43.546V41H42.064V34.844H43.546V37.178H45.946V34.844H47.428ZM51.6201 34.748C52.0761 34.748 52.4901 34.822 52.8621 34.97C53.2381 35.118 53.5581 35.328 53.8221 35.6C54.0901 35.872 54.2961 36.204 54.4401 36.596C54.5841 36.988 54.6561 37.426 54.6561 37.91C54.6561 38.398 54.5841 38.838 54.4401 39.23C54.2961 39.622 54.0901 39.956 53.8221 40.232C53.5581 40.508 53.2381 40.72 52.8621 40.868C52.4901 41.016 52.0761 41.09 51.6201 41.09C51.1601 41.09 50.7421 41.016 50.3661 40.868C49.9901 40.72 49.6681 40.508 49.4001 40.232C49.1361 39.956 48.9301 39.622 48.7821 39.23C48.6381 38.838 48.5661 38.398 48.5661 37.91C48.5661 37.426 48.6381 36.988 48.7821 36.596C48.9301 36.204 49.1361 35.872 49.4001 35.6C49.6681 35.328 49.9901 35.118 50.3661 34.97C50.7421 34.822 51.1601 34.748 51.6201 34.748ZM51.6201 39.95C52.1321 39.95 52.5101 39.778 52.7541 39.434C53.0021 39.09 53.1261 38.586 53.1261 37.922C53.1261 37.258 53.0021 36.752 52.7541 36.404C52.5101 36.056 52.1321 35.882 51.6201 35.882C51.1001 35.882 50.7141 36.058 50.4621 36.41C50.2141 36.758 50.0901 37.262 50.0901 37.922C50.0901 38.582 50.2141 39.086 50.4621 39.434C50.7141 39.778 51.1001 39.95 51.6201 39.95ZM59.7527 37.214C59.7527 37.022 59.7247 36.842 59.6687 36.674C59.6167 36.502 59.5367 36.352 59.4287 36.224C59.3207 36.096 59.1827 35.996 59.0147 35.924C58.8507 35.848 58.6587 35.81 58.4387 35.81C58.0107 35.81 57.6727 35.932 57.4247 36.176C57.1807 36.42 57.0247 36.766 56.9567 37.214H59.7527ZM56.9267 38.108C56.9507 38.424 57.0067 38.698 57.0947 38.93C57.1827 39.158 57.2987 39.348 57.4427 39.5C57.5867 39.648 57.7567 39.76 57.9527 39.836C58.1527 39.908 58.3727 39.944 58.6127 39.944C58.8527 39.944 59.0587 39.916 59.2307 39.86C59.4067 39.804 59.5587 39.742 59.6867 39.674C59.8187 39.606 59.9327 39.544 60.0287 39.488C60.1287 39.432 60.2247 39.404 60.3167 39.404C60.4407 39.404 60.5327 39.45 60.5927 39.542L61.0187 40.082C60.8547 40.274 60.6707 40.436 60.4667 40.568C60.2627 40.696 60.0487 40.8 59.8247 40.88C59.6047 40.956 59.3787 41.01 59.1467 41.042C58.9187 41.074 58.6967 41.09 58.4807 41.09C58.0527 41.09 57.6547 41.02 57.2867 40.88C56.9187 40.736 56.5987 40.526 56.3267 40.25C56.0547 39.97 55.8407 39.626 55.6847 39.218C55.5287 38.806 55.4507 38.33 55.4507 37.79C55.4507 37.37 55.5187 36.976 55.6547 36.608C55.7907 36.236 55.9847 35.914 56.2367 35.642C56.4927 35.366 56.8027 35.148 57.1667 34.988C57.5347 34.828 57.9487 34.748 58.4087 34.748C58.7967 34.748 59.1547 34.81 59.4827 34.934C59.8107 35.058 60.0927 35.24 60.3287 35.48C60.5647 35.716 60.7487 36.008 60.8807 36.356C61.0167 36.7 61.0847 37.094 61.0847 37.538C61.0847 37.762 61.0607 37.914 61.0127 37.994C60.9647 38.07 60.8727 38.108 60.7367 38.108H56.9267Z" fill="#2D2D2D"/>
</svg>

<svg width="62" height="44" fill="none" xmlns="http://www.w3.org/2000/svg"><path d="m31 26.688-1.813-1.65C22.75 19.2 18.5 15.35 18.5 10.625c0-3.85 3.025-6.875 6.875-6.875 2.175 0 4.262 1.013 5.625 2.612 1.362-1.6 3.45-2.612 5.625-2.612 3.85 0 6.875 3.025 6.875 6.875 0 4.725-4.25 8.575-10.688 14.425L31 26.687ZM8.28 32.324V41H6.66v-5.436c0-.204.004-.418.012-.642.012-.224.036-.462.072-.714-.08.224-.168.432-.264.624a6.114 6.114 0 0 1-.27.498l-3.318 5.172c-.036.06-.08.12-.132.18-.048.06-.102.114-.162.162-.06.044-.126.082-.198.114a.608.608 0 0 1-.222.042H.966v-8.676h1.62v5.436c0 .204-.006.42-.018.648a6.77 6.77 0 0 1-.066.714c.08-.224.166-.432.258-.624.096-.192.19-.36.282-.504l3.312-5.172a1.023 1.023 0 0 1 .294-.336.785.785 0 0 1 .192-.114.555.555 0 0 1 .228-.048H8.28Zm1.197 3.186c.232-.224.52-.406.864-.546.345-.144.757-.216 1.237-.216.38 0 .718.046 1.014.138.295.088.543.21.743.366.204.152.358.328.462.528a1.262 1.262 0 0 1 .108.984 1.406 1.406 0 0 1-.474.702c-.127.1-.285.186-.473.258.335.128.605.316.81.564.207.248.311.554.311.918 0 .3-.07.566-.21.798-.136.232-.317.43-.546.594-.228.16-.49.282-.786.366a3.26 3.26 0 0 1-.905.126c-.176 0-.367-.016-.57-.048a3.17 3.17 0 0 1-.606-.162 3.303 3.303 0 0 1-.6-.312 2.545 2.545 0 0 1-.535-.486l.426-.54a.3.3 0 0 1 .27-.138c.093 0 .18.03.264.09l.288.192c.112.068.244.132.396.192.152.056.342.084.57.084.373 0 .655-.084.847-.252a.803.803 0 0 0 .287-.63c0-.248-.1-.442-.3-.582-.195-.14-.515-.21-.96-.21h-.696v-.966h.697c.387 0 .685-.068.893-.204.208-.136.313-.316.313-.54 0-.204-.092-.372-.277-.504-.18-.132-.447-.198-.803-.198-.213 0-.393.022-.54.066a2.597 2.597 0 0 0-.385.144 2.61 2.61 0 0 0-.264.138.386.386 0 0 1-.378.03.527.527 0 0 1-.156-.174l-.336-.57Zm8.655 4.5c.512 0 .894-.164 1.146-.492.252-.328.378-.808.378-1.44 0-.628-.124-1.106-.372-1.434-.244-.328-.618-.492-1.122-.492-.504 0-.888.156-1.152.468-.264.308-.396.77-.396 1.386 0 .652.124 1.15.372 1.494.252.34.634.51 1.146.51Zm.432-6.282a2.704 2.704 0 0 0-.966.222c-.264.12-.484.284-.66.492a2.14 2.14 0 0 0-.396.738c-.088.284-.14.6-.156.948.1-.156.222-.298.366-.426.148-.132.312-.244.492-.336.184-.096.382-.17.594-.222a2.94 2.94 0 0 1 .69-.078c.408 0 .776.072 1.104.216.328.144.606.348.834.612.232.264.408.582.528.954.124.368.186.776.186 1.224 0 .464-.074.882-.222 1.254-.144.372-.35.69-.618.954a2.68 2.68 0 0 1-.96.6c-.376.14-.792.21-1.248.21-.444 0-.854-.072-1.23-.216a2.363 2.363 0 0 1-.966-.702c-.272-.324-.484-.744-.636-1.26-.152-.52-.228-1.154-.228-1.902 0-.628.058-1.212.174-1.752a4.16 4.16 0 0 1 .57-1.416c.264-.408.61-.736 1.038-.984.428-.248.956-.396 1.584-.444l2.19-.168.078.768a.71.71 0 0 1-.072.42c-.064.112-.178.172-.342.18l-1.728.114Zm5.248 5.676c.168.204.35.348.546.432.2.084.416.126.648.126.224 0 .426-.042.606-.126.18-.084.332-.212.456-.384.128-.172.226-.388.294-.648.068-.264.102-.574.102-.93 0-.36-.03-.664-.09-.912a1.73 1.73 0 0 0-.246-.612.978.978 0 0 0-.396-.342 1.206 1.206 0 0 0-.522-.108c-.308 0-.57.066-.786.198-.216.128-.42.31-.612.546v2.76Zm-.078-3.72a3.21 3.21 0 0 1 .858-.69c.32-.176.696-.264 1.128-.264a2 2 0 0 1 .918.21c.28.14.52.344.72.612.204.264.36.592.468.984.112.388.168.834.168 1.338 0 .46-.062.886-.186 1.278a3.095 3.095 0 0 1-.534 1.02 2.447 2.447 0 0 1-.834.678c-.324.16-.688.24-1.092.24-.344 0-.638-.052-.882-.156a2.201 2.201 0 0 1-.654-.444v2.52H22.33v-8.166h.906c.192 0 .318.09.378.27l.12.57Zm8.656 2.688c-.428.02-.788.058-1.08.114-.292.052-.526.12-.702.204a.923.923 0 0 0-.378.294.639.639 0 0 0-.114.366c0 .26.076.446.228.558.156.112.358.168.606.168.304 0 .566-.054.786-.162.224-.112.442-.28.654-.504v-1.038Zm-3.396-2.67c.708-.648 1.56-.972 2.556-.972.36 0 .682.06.966.18.284.116.524.28.72.492.196.208.344.458.444.75.104.292.156.612.156.96V41h-.672a.708.708 0 0 1-.324-.06c-.076-.044-.136-.13-.18-.258l-.132-.444c-.156.14-.308.264-.456.372a2.804 2.804 0 0 1-.462.264c-.16.072-.332.126-.516.162-.18.04-.38.06-.6.06-.26 0-.5-.034-.72-.102a1.618 1.618 0 0 1-.57-.318 1.414 1.414 0 0 1-.372-.522 1.852 1.852 0 0 1-.132-.726 1.419 1.419 0 0 1 .33-.906c.12-.14.274-.272.462-.396s.418-.232.69-.324c.276-.092.596-.166.96-.222.364-.06.78-.096 1.248-.108v-.36c0-.412-.088-.716-.264-.912-.176-.2-.43-.3-.762-.3-.24 0-.44.028-.6.084-.156.056-.294.12-.414.192l-.33.186a.631.631 0 0 1-.324.084.439.439 0 0 1-.264-.078.716.716 0 0 1-.174-.192l-.264-.474Zm11.602-.858V41h-1.482v-2.724h-2.4V41h-1.482v-6.156h1.482v2.334h2.4v-2.334h1.482Zm6.832 0V41h-1.482v-2.724h-2.4V41h-1.482v-6.156h1.482v2.334h2.4v-2.334h1.482Zm4.192-.096c.456 0 .87.074 1.242.222a2.692 2.692 0 0 1 1.578 1.626c.144.392.216.83.216 1.314 0 .488-.072.928-.216 1.32-.144.392-.35.726-.618 1.002a2.653 2.653 0 0 1-.96.636 3.333 3.333 0 0 1-1.242.222c-.46 0-.878-.074-1.254-.222a2.712 2.712 0 0 1-.966-.636 2.922 2.922 0 0 1-.618-1.002 3.807 3.807 0 0 1-.216-1.32c0-.484.072-.922.216-1.314.148-.392.354-.724.618-.996.268-.272.59-.482.966-.63a3.397 3.397 0 0 1 1.254-.222Zm0 5.202c.512 0 .89-.172 1.134-.516.248-.344.372-.848.372-1.512s-.124-1.17-.372-1.518c-.244-.348-.622-.522-1.134-.522-.52 0-.906.176-1.158.528-.248.348-.372.852-.372 1.512s.124 1.164.372 1.512c.252.344.638.516 1.158.516Zm8.133-2.736c0-.192-.028-.372-.084-.54a1.25 1.25 0 0 0-.24-.45 1.096 1.096 0 0 0-.414-.3 1.358 1.358 0 0 0-.576-.114c-.428 0-.766.122-1.014.366-.244.244-.4.59-.468 1.038h2.796Zm-2.826.894c.024.316.08.59.168.822.088.228.204.418.348.57.144.148.314.26.51.336.2.072.42.108.66.108.24 0 .446-.028.618-.084a2.76 2.76 0 0 0 .456-.186 7.55 7.55 0 0 0 .342-.186.59.59 0 0 1 .288-.084c.124 0 .216.046.276.138l.426.54a2.536 2.536 0 0 1-.552.486 3.281 3.281 0 0 1-1.32.474 4.79 4.79 0 0 1-.666.048 3.33 3.33 0 0 1-1.194-.21 2.726 2.726 0 0 1-.96-.63 2.993 2.993 0 0 1-.642-1.032c-.156-.412-.234-.888-.234-1.428 0-.42.068-.814.204-1.182.136-.372.33-.694.582-.966.256-.276.566-.494.93-.654.368-.16.782-.24 1.242-.24.388 0 .746.062 1.074.186.328.124.61.306.846.546.236.236.42.528.552.876.136.344.204.738.204 1.182 0 .224-.024.376-.072.456-.048.076-.14.114-.276.114h-3.81Z" fill="#2D2D2D"/></svg>
